assets/images/ico_tel.svg

<svg width="26" height="26" viewBox="0 0 26 26" fill="none" xmlns="http://www.w3.org/2000/svg">
<path d="M21.191 15.5159C21.191 15.5159 21.1899 15.5148 21.1891 15.5139C20.168 14.5001 18.7924 14.5001 17.7694 15.5139C17.1594 16.1166 16.5487 16.7213 15.9207 17.3648C15.7711 17.2845 15.6182 17.2091 15.4645 17.1346C15.2334 17.0218 15.0021 16.9097 14.7864 16.7752C13.157 15.7522 11.6603 14.3878 10.2116 12.6052C9.47796 11.7012 8.97506 10.905 8.62227 10.0733C9.23916 9.47473 9.84409 8.86369 10.4471 8.25404C11.5121 7.18098 11.5099 5.84437 10.4415 4.7663C9.95279 4.27146 9.45711 3.7758 8.96366 3.28902L8.45881 2.78307C8.12131 2.44419 7.78326 2.10392 7.43715 1.76199C6.39325 0.745078 5.04966 0.745912 4.01382 1.76505C3.76807 2.00829 3.52426 2.2546 3.28017 2.50007C2.90209 2.88287 2.52429 3.26456 2.13953 3.63318C1.4676 4.27341 1.09035 5.08405 1.01862 6.04286C0.931054 7.25743 1.14984 8.48812 1.72697 10.0316C2.61742 12.419 3.97435 14.6822 5.87561 16.9503C8.23696 19.7673 11.0968 22.004 14.3761 23.5992C16.1567 24.4676 17.686 24.9105 19.1905 24.9908C19.2965 24.9969 19.4002 25 19.5022 25C20.7535 25 21.7398 24.5774 22.5096 23.7151C22.8691 23.3151 23.258 22.9384 23.6469 22.5617C23.8351 22.3785 24.0236 22.1953 24.211 22.0088C25.2585 20.951 25.2638 19.5899 24.2221 18.5394L21.191 15.5159ZM23.4715 21.2729C23.2891 21.4553 23.1051 21.6343 22.9208 21.8136C22.5146 22.2067 22.1093 22.6006 21.7326 23.0201C21.1157 23.7123 20.3206 24.0014 19.2464 23.9506C17.8861 23.8772 16.4833 23.468 14.832 22.6626C11.6859 21.1314 8.94114 18.9844 6.67486 16.2804C4.85089 14.1048 3.55178 11.9414 2.70332 9.6671C2.18095 8.27045 1.9819 7.17597 2.05835 6.11931C2.11117 5.41792 2.37333 4.85081 2.86011 4.38655C3.2521 4.01098 3.63685 3.6229 4.02161 3.23398C4.26236 2.99073 4.50366 2.74638 4.74608 2.50702C5.06106 2.19761 5.39244 2.04277 5.72493 2.04277C6.05742 2.04277 6.39019 2.19761 6.70683 2.50591C7.04878 2.84395 7.38488 3.18088 7.72043 3.51782L8.22945 4.02794C8.72207 4.51443 9.21386 5.00621 9.70064 5.4991C10.3676 6.17213 10.3701 6.85211 9.7062 7.51985C9.09376 8.13979 8.48049 8.75972 7.85471 9.36464C7.54307 9.66488 7.47245 10.0132 7.64037 10.4335C8.02151 11.3518 8.58113 12.2508 9.40207 13.2627C10.9247 15.135 12.504 16.5734 14.2343 17.6598C14.4817 17.8135 14.7433 17.9428 15.006 18.0709C15.169 18.1504 15.3307 18.2297 15.4898 18.3164C15.7789 18.4743 16.2106 18.5699 16.6362 18.1271C17.2492 17.4949 17.8761 16.875 18.5025 16.2548C19.1235 15.6379 19.8341 15.6387 20.4552 16.2537L23.4829 19.2752C24.1181 19.916 24.114 20.6254 23.4715 21.2729Z" fill="#ABB2BA" stroke="#ABB2BA"/>
</svg>

<svg width="26" height="26" fill="none" xmlns="http://www.w3.org/2000/svg"><path d="M21.191 15.516l-.002-.002c-1.021-1.014-2.397-1.014-3.42 0-.61.603-1.22 1.207-1.848 1.85a12.39 12.39 0 00-.457-.23c-.23-.112-.462-.224-.678-.359-1.629-1.023-3.126-2.387-4.574-4.17-.734-.904-1.237-1.7-1.59-2.532.617-.598 1.222-1.21 1.825-1.819 1.065-1.073 1.063-2.41-.005-3.488A160.8 160.8 0 008.963 3.29l-.505-.506c-.338-.339-.676-.68-1.022-1.021C6.393.745 5.05.746 4.014 1.765c-.246.243-.49.49-.734.735a58.35 58.35 0 01-1.14 1.133c-.672.64-1.05 1.451-1.121 2.41-.088 1.214.13 2.445.708 3.989.89 2.387 2.247 4.65 4.149 6.918a25.695 25.695 0 008.5 6.65c1.78.868 3.31 1.31 4.815 1.39.106.007.21.01.311.01 1.252 0 2.238-.423 3.008-1.285.36-.4.748-.777 1.137-1.153.188-.184.377-.367.564-.553 1.048-1.058 1.053-2.42.011-3.47l-3.031-3.023zm2.28 5.757c-.182.182-.366.361-.55.54a24.18 24.18 0 00-1.188 1.207c-.617.692-1.412.981-2.487.93-1.36-.073-2.763-.482-4.414-1.287a24.669 24.669 0 01-8.157-6.383c-1.824-2.175-3.123-4.339-3.972-6.613-.522-1.397-.721-2.491-.645-3.548.053-.701.315-1.268.802-1.732a63.09 63.09 0 001.162-1.153c.24-.243.482-.488.724-.727.315-.31.646-.464.979-.464.332 0 .665.155.982.463.342.338.678.675 1.013 1.012l.51.51c.492.486.984.978 1.47 1.471.668.673.67 1.353.006 2.02-.612.62-1.226 1.24-1.851 1.846-.312.3-.383.648-.215 1.069.382.918.941 1.817 1.762 2.829 1.523 1.872 3.102 3.31 4.832 4.397.248.154.51.283.772.41.163.08.325.16.484.246.289.158.72.254 1.146-.189.613-.632 1.24-1.252 1.867-1.872.62-.617 1.331-.616 1.952-.001l3.028 3.021c.635.641.631 1.35-.012 1.998z" fill="#ABB2BA" stroke="#ABB2BA"/></svg>
